icons/new/svg/pen_pattern_detailed.svg

<svg xmlns="http://www.w3.org/2000/svg" viewBox="0 0 24 24" baseProfile="tiny"><path fill="none" d="M0 0h24v24H0z"/><path d="M145 34.501c0-.277-.244-.501-.545-.501h-6.91c-.301 0-.545.224-.545.501 0 0-.572 9.082 0 10.998.33 1.108 3.738.822 4.039.822 0 0 3.995.202 4.32-.896l.008-.026c.55-1.971-.367-10.898-.367-10.898z" fill="url(#_Linear2)" transform="matrix(.82011 .81517 -.89331 .88793 -58.281 -148.129)"/><path d="M137.926 29.538c.552 0 1.074 1.884 1.074 3.156 0 1.273-.448 3.258-1 3.258s-1.269-2.381-1.269-3.653c0-1.273.643-2.761 1.195-2.761z" fill="url(#_Linear4)" transform="matrix(2.15655 -2.14357 1.46668 1.45785 -326.414 253.336)"/><path d="M137.926 29.538c.552 0 1.074 1.884 1.074 3.156 0 1.273-.448 3.258-1 3.258s-1.269-2.381-1.269-3.653c0-1.273.643-2.761 1.195-2.761z" fill="url(#_Linear5)" transform="matrix(2.15655 -2.14357 1.46668 1.45785 -326.922 253.84)"/><path d="M137.469 30.372c.214-.178.493-.114.73.073.761.597.801 1.598.801 2.249 0 1.249-.506 2.459-1.147 2.388a.281.281 0 0 1 .029.001c-.552 0-.882-1.116-.882-2.389 0-1.272.022-1.95.469-2.322z" fill="url(#_Linear6)" transform="matrix(.99674 -.99074 1.46668 1.45785 -168.363 96.235)"/><path d="M13.69 4.287c.36-.359 1.71-.379 4.25 2.146 1.452 1.443 2.905 3.417 2.309 4.01-.596.592-2.113-.682-3.9-2.16-1.716-1.744-3.02-3.639-2.66-3.996z" fill="#021112"/><g><path d="M136.982 42.182c.408-1.183.564-2.836.596-3.228a.174.174 0 0 1 .078-.132c.545-.355 4.048-2.64 5.227-3.512.445-.33.886-.704 1.265-1.046l.017-.014c.836-.767 1.23-.93 1.23-.93l3.404 3.405s-1.272 1.19-2.131 2.35c-.872 1.179-3.149 4.71-3.502 5.258a.17.17 0 0 1-.131.078c-.339.03-1.632.161-2.661.517-1.394.481-5.647 2.334-5.647 2.334s1.773-3.685 2.255-5.08z" fill="url(#_Linear7)" transform="matrix(1.15981 0 0 1.15283 -153.173 -33.597)"/><path d="M137.864 44.27s3.037-2.258 6.439-.822" fill="none" stroke="#000" stroke-width=".18" transform="matrix(1.15981 0 0 1.15283 -153.95 -32.974)"/><path d="M137.852 44.311s2.049-1.299 5.451.137" fill="none" stroke="#000" stroke-width=".18" transform="matrix(1.15981 0 0 1.15283 -151.166 -35.74)"/><path d="M137.866 44.386s3.035-2.374 6.437-.938" fill="none" stroke="#000" stroke-width=".18" transform="matrix(0 -1.15283 -1.15981 0 57.352 177.054)"/><path d="M137.866 44.386s2.035-1.374 5.437.062" fill="none" stroke="#000" stroke-width=".18" transform="matrix(0 -1.15283 -1.15981 0 60.135 174.289)"/><path d="M137.726 44.333s3.175-2.321 6.577-.885" fill="none" stroke="url(#_Linear9)" stroke-width=".18" transform="matrix(1.15981 0 0 1.15283 -153.95 -32.912)"/><path d="M137.759 44.315s2.142-1.303 5.544.133" fill="none" stroke="url(#_Linear10)" stroke-width=".18" transform="matrix(1.15981 0 0 1.15283 -151.166 -35.68)"/><path d="M137.866 44.386s3.035-2.374 6.437-.938" fill="none" stroke="url(#_Linear11)" stroke-width=".18" transform="matrix(0 -1.15283 -1.15981 0 57.267 177.133)"/><path d="M137.823 44.379s2.078-1.367 5.48.069" fill="none" stroke="url(#_Linear12)" stroke-width=".18" transform="matrix(0 -1.15283 -1.15981 0 60.066 174.289)"/><g><path d="M141.297 40.686a.5.5 0 1 1 .128.141l-6.889 6.889-.135-.135 6.896-6.895z" fill="url(#_Linear13)" transform="matrix(1.15981 0 0 1.15283 -153.95 -32.974)"/><path d="M10.013 14.014a.578.578 0 0 1 .496-.875c.32 0 .58.258.58.577a.578.578 0 0 1-.927.46l-7.99 7.943-.157-.156 7.998-7.949z"/></g><path d="M136.982 42.182c.408-1.183.564-2.836.596-3.228a.174.174 0 0 1 .078-.132c.545-.355 4.048-2.64 5.227-3.512.445-.33.886-.704 1.265-1.046.004-.004.012-.004.017-.008.642-.58 1.212-.954 1.212-.954l1.751 1.752s-1.273 1.189-2.131 2.35c-.872 1.179-3.15 4.71-3.502 5.257a.172.172 0 0 1-.131.078c-.34.031-1.632.162-2.661.517-1.394.482-3.976 4.006-3.976 4.006s1.773-3.685 2.255-5.08z" fill="url(#_Linear15)" transform="matrix(1.15981 0 0 1.15283 -153.173 -33.597)"/></g><g><path d="M170.844 115.21c.337-.704 2.129-4.468 2.651-5.98.491-1.42.676-3.405.714-3.867a.199.199 0 0 1 .091-.152c.641-.418 4.844-3.16 6.257-4.205 1.361-1.006 2.762-2.444 2.928-2.616l2.231 2.231c-.039.037-.047.044 0 0l2 2s-1.602 1.502-2.629 2.89c-1.045 1.414-3.776 5.649-4.192 6.295a.202.202 0 0 1-.153.091c-.401.035-1.953.192-3.187.618-1.613.558-6.422 2.648-6.758 2.794l.047-.099z" fill="url(#_Linear16)" transform="matrix(.96919 0 0 .96335 -162.45 -90.195)"/></g><g><path d="M144.444 44.926c-.564.14-1.569.392-2.538.651-1.705.456-6.935 2.906-6.935 2.906l.15-.315c1.127-.51 4.945-2.179 6.434-2.653.995-.389 2.251-.541 2.889-.589zm7.194-9.227l.173.174s-1.676 1.424-2.703 2.812c-1.053 1.425-3.787 5.502-4.163 6.064a.2.2 0 0 1-.042.045c.438-.682 3.145-4.877 4.184-6.283.999-1.411 2.537-2.822 2.551-2.812z" fill="url(#_Linear17)" transform="matrix(.96919 0 0 .96335 -127.559 -25.65)"/></g><defs><linearGradient id="_Linear2" x2="1" gradientUnits="userSpaceOnUse" gradientTransform="translate(133.222 40.707) scale(14.1421)"><stop offset="0" stop-color="#1fadff"/><stop offset=".2" stop-color="#36b0ff"/><stop offset=".2" stop-color="#67b6fe"/><stop offset=".3" stop-color="#95bcfe"/><stop offset=".4" stop-color="#7487d4"/><stop offset=".6" stop-color="#5252aa"/><stop offset="1" stop-color="#423996"/></linearGradient><linearGradient id="_Linear4" x2="1" gradientUnits="userSpaceOnUse" gradientTransform="matrix(.16732 5.0578 -3.43983 .24602 138.063 29.658)"><stop offset="0" stop-color="#002e56"/><stop offset=".2" stop-color="#fff"/><stop offset=".5" stop-color="#fff"/><stop offset=".8" stop-color="#143351"/><stop offset=".9" stop-color="#899fbf"/><stop offset="1" stop-color="#757e90"/></linearGradient><linearGradient id="_Linear5" x2="1" gradientUnits="userSpaceOnUse" gradientTransform="matrix(.16732 5.0578 -3.43983 .24602 138.063 29.658)"><stop offset="0" stop-color="#09628e"/><stop offset=".2" stop-color="#fff"/><stop offset=".5" stop-color="#fff"/><stop offset=".8" stop-color="#1d446b"/><stop offset=".9" stop-color="#899fbf"/><stop offset="1" stop-color="#757e90"/></linearGradient><linearGradient id="_Linear6" x2="1" gradientUnits="userSpaceOnUse" gradientTransform="matrix(0 3.95387 -5.81802 0 138.182 30.582)"><stop offset="0" stop-color="#081823"/><stop offset="1" stop-color="#556670"/></linearGradient><linearGradient id="_Linear7" x2="1" gradientUnits="userSpaceOnUse" gradientTransform="scale(8.4534) rotate(38.489 2.042 25.743)"><stop offset="0" stop-color="#a5a5a5"/><stop offset=".1" stop-color="#7d7d7d"/><stop offset=".1" stop-color="#717171"/><stop offset=".4" stop-color="#fff"/><stop offset=".6" stop-color="#d2d2d2"/><stop offset=".8" stop-color="#656565"/><stop offset=".8" stop-color="#636363"/><stop offset=".8" stop-color="#5f5f5f"/><stop offset=".8" stop-color="#5a5a5a"/><stop offset=".9" stop-color="#bdbdbd"/><stop offset="1" stop-color="#e4e4e4"/></linearGradient><linearGradient id="_Linear9" x2="1" gradientUnits="userSpaceOnUse" gradientTransform="translate(138.329 43.618) scale(4.69236)"><stop offset="0" stop-color="#9d9d9d"/><stop offset=".5" stop-color="#fff"/><stop offset="1" stop-color="#a7a7a7"/></linearGradient><linearGradient id="_Linear10" x2="1" gradientUnits="userSpaceOnUse" gradientTransform="translate(137.806 44.142) scale(4.69236)"><stop offset="0" stop-color="#9d9d9d"/><stop offset=".5" stop-color="#fff"/><stop offset="1" stop-color="#a7a7a7"/></linearGradient><linearGradient id="_Linear11" x2="1" gradientUnits="userSpaceOnUse" gradientTransform="translate(139.52 43.783) scale(4.69236)"><stop offset="0" stop-color="#9d9d9d"/><stop offset=".5" stop-color="#fff"/><stop offset="1" stop-color="#a7a7a7"/></linearGradient><linearGradient id="_Linear12" x2="1" gradientUnits="userSpaceOnUse" gradientTransform="translate(137.991 44.448) scale(4.69236)"><stop offset="0" stop-color="#9d9d9d"/><stop offset=".5" stop-color="#fff"/><stop offset="1" stop-color="#a7a7a7"/></linearGradient><linearGradient id="_Linear13" x2="1" gradientUnits="userSpaceOnUse" gradientTransform="rotate(135 62.774 49.385) scale(9.2904)"><stop offset="0" stop-color="#b2b2b2"/><stop offset=".1" stop-color="#f0efef"/><stop offset=".1" stop-color="#d4d1d1"/><stop offset=".2" stop-color="#766b6c"/><stop offset=".5" stop-color="#ddd"/><stop offset=".8" stop-color="#d2d2d2"/><stop offset=".9" stop-color="#b8b8b8"/><stop offset="1" stop-color="#9b9b9b"/></linearGradient><linearGradient id="_Linear15" x2="1" gradientUnits="userSpaceOnUse" gradientTransform="rotate(57.567 39.55 142.169) scale(5.95704)"><stop offset="0" stop-color="#2c2c2c"/><stop offset=".6" stop-color="#2c2c2c" stop-opacity=".804"/><stop offset=".8" stop-color="#2c2c2c" stop-opacity=".392"/><stop offset="1" stop-color="#2c2c2c" stop-opacity="0"/></linearGradient><linearGradient id="_Linear16" x2="1" gradientUnits="userSpaceOnUse" gradientTransform="rotate(135 71.479 88.186) scale(3.98585)"><stop offset="0"/><stop offset=".6" stop-opacity=".302"/><stop offset="1" stop-opacity="0"/></linearGradient><linearGradient id="_Linear17" x2="1" gradientUnits="userSpaceOnUse" gradientTransform="scale(-15.7316) rotate(-45 -7.688 10.552)"><stop offset="0"/><stop offset=".3" stop-color="#c2c2c2"/><stop offset="1" stop-color="#5b5f5d"/></linearGradient></defs></svg>

<?xml version="1.0"?>
<!-- Converted with SVG Converter - Version 0.9.6 (Compiled Fri Dec  1 22:15:06 2017) - Copyright (C) 2011 Nokia -->
<svg xmlns="http://www.w3.org/2000/svg" viewBox="0 0 24 24" width="100%" xml:space="preserve" version="1.1" xmlns:xlink="http://www.w3.org/1999/xlink" height="100%" baseProfile="tiny">
 <g transform="matrix(1,0,0,1,-167,-94)">
  <g transform="matrix(1,0,0,1,35,67)">
   <g id="detailed">
    <rect style="fill:none;" width="24" id="pen_pattern_detailed" y="27" x="132" height="24"/>
    <g>
     <g transform="matrix(0.820112,0.815174,-0.893311,0.887933,73.7185,-121.129)">
      <path style="fill:url(#_Linear2);" d="M145,34.501C145,34.224 144.756,34 144.455,34L137.545,34C137.244,34 137,34.224 137,34.501C137,34.501 136.428,43.583 137,45.499C137.33,46.607 140.738,46.321 141.039,46.321C141.039,46.321 145.034,46.523 145.359,45.425C145.362,45.416 145.364,45.408 145.367,45.399C145.917,43.428 145,34.501 145,34.501Z"/>
      <g>
       <g transform="matrix(-1.11022e-15,-2.41411,1.78839,4.44089e-16,82.7713,376.145)">
        <path style="fill:url(#_Linear4);" d="M137.926,29.538C138.478,29.538 139,31.422 139,32.694C139,33.967 138.552,35.952 138,35.952C137.448,35.952 136.731,33.571 136.731,32.299C136.731,31.026 137.374,29.538 137.926,29.538Z"/>
       </g>
       <g transform="matrix(0,-2.41411,1.78839,4.44089e-16,82.7713,376.713)">
        <path style="fill:url(#_Linear5);" d="M137.926,29.538C138.478,29.538 139,31.422 139,32.694C139,33.967 138.552,35.952 138,35.952C137.448,35.952 136.731,33.571 136.731,32.299C136.731,31.026 137.374,29.538 137.926,29.538Z"/>
       </g>
       <g transform="matrix(0,-1.11578,1.78839,4.44089e-16,82.7713,199.217)">
        <path style="fill:url(#_Linear6);" d="M137.469,30.372C137.683,30.194 137.962,30.258 138.199,30.445C138.96,31.042 139,32.043 139,32.694C139,33.943 138.494,35.153 137.853,35.082C137.843,35.081 137.892,35.083 137.882,35.083C137.33,35.083 137,33.967 137,32.694C137,31.422 137.022,30.744 137.469,30.372Z"/>
       </g>
       <g transform="matrix(0,-1.20938,1.39062,2.22045e-16,95.8082,212.476)">
        <path style="fill:rgb(2,17,18);" d="M138.032,29.884C138.366,29.884 139,30.467 139,32.694C139,33.967 138.753,35.475 138.201,35.475C137.65,35.475 137.541,34.248 137.402,32.812C137.42,31.291 137.699,29.884 138.032,29.884Z"/>
       </g>
      </g>
     </g>
     <g transform="matrix(-0.820112,-0.815174,0.820112,-0.815174,225.946,189.518)">
      <g>
       <g transform="matrix(-0.707107,0.707107,-0.707107,-0.707107,270.952,-30.3717)">
        <path style="fill:url(#_Linear7);" d="M136.982,42.182C137.39,40.999 137.546,39.346 137.578,38.954C137.582,38.9 137.611,38.852 137.656,38.822C138.201,38.467 141.704,36.182 142.883,35.31C143.328,34.98 143.769,34.606 144.148,34.264C144.153,34.259 144.159,34.255 144.165,34.25C145.001,33.483 145.395,33.32 145.395,33.32L148.799,36.725C148.799,36.725 147.527,37.915 146.668,39.075C145.796,40.254 143.519,43.785 143.166,44.333C143.137,44.378 143.089,44.407 143.035,44.411C142.696,44.441 141.403,44.572 140.374,44.928C138.98,45.409 134.727,47.262 134.727,47.262C134.727,47.262 136.5,43.577 136.982,42.182Z"/>
        <g>
         <g>
          <g transform="matrix(1,0,0,1,-0.66904,0.54065)">
           <path style="fill:none;stroke:black;stroke-width:0.18px;" d="M137.864,44.27C137.864,44.27 140.901,42.012 144.303,43.448"/>
          </g>
          <g transform="matrix(1,0,0,1,1.73089,-1.85928)">
           <path style="fill:none;stroke:black;stroke-width:0.18px;" d="M137.852,44.311C137.852,44.311 139.901,43.012 143.303,44.448"/>
          </g>
          <g transform="matrix(2.22045e-16,-1,-1,-2.22045e-16,181.516,182.725)">
           <path style="fill:none;stroke:black;stroke-width:0.18px;" d="M137.866,44.386C137.866,44.386 140.901,42.012 144.303,43.448"/>
          </g>
          <g transform="matrix(2.22045e-16,-1,-1,-2.22045e-16,183.916,180.326)">
           <path style="fill:none;stroke:black;stroke-width:0.18px;" d="M137.866,44.386C137.866,44.386 139.901,43.012 143.303,44.448"/>
          </g>
          <g transform="matrix(1,0,0,1,-0.66904,0.593708)">
           <path style="fill:none;stroke:url(#_Linear9);stroke-width:0.18px;" d="M137.726,44.333C137.726,44.333 140.901,42.012 144.303,43.448"/>
          </g>
          <g transform="matrix(1,0,0,1,1.73089,-1.80742)">
           <path style="fill:none;stroke:url(#_Linear10);stroke-width:0.18px;" d="M137.759,44.315C137.759,44.315 139.901,43.012 143.303,44.448"/>
          </g>
          <g transform="matrix(2.22045e-16,-1,-1,-2.22045e-16,181.443,182.793)">
           <path style="fill:none;stroke:url(#_Linear11);stroke-width:0.18px;" d="M137.866,44.386C137.866,44.386 140.901,42.012 144.303,43.448"/>
          </g>
          <g transform="matrix(2.22045e-16,-1,-1,-2.22045e-16,183.856,180.326)">
           <path style="fill:none;stroke:url(#_Linear12);stroke-width:0.18px;" d="M137.823,44.379C137.823,44.379 139.901,43.012 143.303,44.448"/>
          </g>
         </g>
         <g transform="matrix(1,0,0,1,-0.66904,0.54065)">
          <path style="fill:url(#_Linear13);" d="M141.297,40.686C141.251,40.61 141.225,40.522 141.225,40.427C141.225,40.151 141.449,39.927 141.725,39.927C142.001,39.927 142.225,40.151 142.225,40.427C142.225,40.703 142.001,40.927 141.725,40.927C141.612,40.927 141.509,40.89 141.425,40.827L134.536,47.716L134.401,47.581L141.297,40.686Z"/>
          <g>
           <g transform="matrix(1,0,0,1,0.0725665,0.0725665)">
            <path d="M141.297,40.686C141.251,40.61 141.225,40.522 141.225,40.427C141.225,40.151 141.449,39.927 141.725,39.927C142.001,39.927 142.225,40.151 142.225,40.427C142.225,40.703 142.001,40.927 141.725,40.927C141.612,40.927 141.509,40.89 141.425,40.827L134.536,47.716L134.401,47.581L141.297,40.686Z"/>
           </g>
          </g>
         </g>
         <path style="fill:url(#_Linear15);" d="M136.982,42.182C137.39,40.999 137.546,39.346 137.578,38.954C137.582,38.9 137.611,38.852 137.656,38.822C138.201,38.467 141.704,36.182 142.883,35.31C143.328,34.98 143.769,34.606 144.148,34.264C144.152,34.26 144.16,34.26 144.165,34.256C144.807,33.676 145.377,33.302 145.377,33.302L147.128,35.054C147.128,35.054 145.855,36.243 144.997,37.404C144.125,38.583 141.847,42.114 141.495,42.661C141.466,42.706 141.417,42.735 141.364,42.739C141.024,42.77 139.732,42.901 138.703,43.256C137.309,43.738 134.727,47.262 134.727,47.262C134.727,47.262 136.5,43.577 136.982,42.182Z"/>
        </g>
       </g>
      </g>
     </g>
     <g transform="matrix(0.969187,0,0,0.963352,-30.4495,-63.1946)">
      <path style="fill:url(#_Linear16);" d="M170.844,115.21C171.181,114.506 172.973,110.742 173.495,109.23C173.986,107.81 174.171,105.825 174.209,105.363C174.214,105.301 174.247,105.245 174.3,105.211C174.941,104.793 179.144,102.051 180.557,101.006C181.918,100 183.319,98.562 183.485,98.39L185.716,100.621C185.677,100.658 185.669,100.665 185.716,100.621L187.716,102.621C187.716,102.621 186.114,104.123 185.087,105.511C184.042,106.925 181.311,111.16 180.895,111.806C180.861,111.858 180.805,111.892 180.742,111.897C180.341,111.932 178.789,112.089 177.555,112.515C175.942,113.073 171.133,115.163 170.797,115.309L170.844,115.21Z"/>
     </g>
     <g transform="matrix(0.969187,5.34768e-17,2.15203e-16,0.963352,4.44124,1.34994)">
      <path style="fill:url(#_Linear17);" d="M144.444,44.926C143.88,45.066 142.875,45.318 141.906,45.577C140.201,46.033 134.971,48.483 134.971,48.483C134.971,48.483 135.026,48.368 135.121,48.168C136.248,47.658 140.066,45.989 141.555,45.515C142.55,45.126 143.806,44.974 144.444,44.926ZM151.638,35.699L151.811,35.873C151.811,35.873 150.135,37.297 149.108,38.685C148.055,40.11 145.321,44.187 144.945,44.749C144.933,44.767 144.919,44.781 144.903,44.794C145.341,44.112 148.048,39.917 149.087,38.511C150.086,37.1 151.624,35.689 151.638,35.699Z"/>
     </g>
    </g>
   </g>
  </g>
 </g>
 <defs>
  <linearGradient x1="0" id="_Linear2" x2="1" gradientUnits="userSpaceOnUse" y2="0" y1="0" gradientTransform="matrix(14.1421,-8.88178e-15,8.88178e-15,14.1421,133.222,40.7071)">
   <stop style="stop-color:rgb(31,173,255);stop-opacity:1" offset="0.0"/>
   <stop style="stop-color:rgb(54,176,255);stop-opacity:1" offset="0.2"/>
   <stop style="stop-color:rgb(103,182,254);stop-opacity:1" offset="0.2"/>
   <stop style="stop-color:rgb(149,188,254);stop-opacity:1" offset="0.3"/>
   <stop style="stop-color:rgb(116,135,212);stop-opacity:1" offset="0.4"/>
   <stop style="stop-color:rgb(82,82,170);stop-opacity:1" offset="0.6"/>
   <stop style="stop-color:rgb(66,57,150);stop-opacity:1" offset="1.0"/>
  </linearGradient>
  <linearGradient x1="0" id="_Linear4" x2="1" gradientUnits="userSpaceOnUse" y2="0" y1="0" gradientTransform="matrix(0.16732,5.0578,-3.43983,0.246022,138.063,29.6579)">
   <stop style="stop-color:rgb(0,46,86);stop-opacity:1" offset="0.0"/>
   <stop style="stop-color:white;stop-opacity:1" offset="0.2"/>
   <stop style="stop-color:white;stop-opacity:1" offset="0.5"/>
   <stop style="stop-color:rgb(20,51,81);stop-opacity:1" offset="0.8"/>
   <stop style="stop-color:rgb(137,159,191);stop-opacity:1" offset="0.9"/>
   <stop style="stop-color:rgb(117,126,144);stop-opacity:1" offset="1.0"/>
  </linearGradient>
  <linearGradient x1="0" id="_Linear5" x2="1" gradientUnits="userSpaceOnUse" y2="0" y1="0" gradientTransform="matrix(0.16732,5.0578,-3.43983,0.246022,138.063,29.6579)">
   <stop style="stop-color:rgb(9,98,142);stop-opacity:1" offset="0.0"/>
   <stop style="stop-color:white;stop-opacity:1" offset="0.2"/>
   <stop style="stop-color:white;stop-opacity:1" offset="0.5"/>
   <stop style="stop-color:rgb(29,68,107);stop-opacity:1" offset="0.8"/>
   <stop style="stop-color:rgb(137,159,191);stop-opacity:1" offset="0.9"/>
   <stop style="stop-color:rgb(117,126,144);stop-opacity:1" offset="1.0"/>
  </linearGradient>
  <linearGradient x1="0" id="_Linear6" x2="1" gradientUnits="userSpaceOnUse" y2="0" y1="0" gradientTransform="matrix(2.22045e-15,3.95387,-5.81802,0,138.182,30.5824)">
   <stop style="stop-color:rgb(8,24,35);stop-opacity:1" offset="0.0"/>
   <stop style="stop-color:rgb(85,102,112);stop-opacity:1" offset="1.0"/>
  </linearGradient>
  <linearGradient x1="0" id="_Linear7" x2="1" gradientUnits="userSpaceOnUse" y2="0" y1="0" gradientTransform="matrix(6.61672,5.26109,-5.26109,6.61672,139.187,36.5407)">
   <stop style="stop-color:rgb(165,165,165);stop-opacity:1" offset="0.0"/>
   <stop style="stop-color:rgb(125,125,125);stop-opacity:1" offset="0.1"/>
   <stop style="stop-color:rgb(113,113,113);stop-opacity:1" offset="0.1"/>
   <stop style="stop-color:white;stop-opacity:1" offset="0.4"/>
   <stop style="stop-color:rgb(210,210,210);stop-opacity:1" offset="0.6"/>
   <stop style="stop-color:rgb(101,101,101);stop-opacity:1" offset="0.8"/>
   <stop style="stop-color:rgb(99,99,99);stop-opacity:1" offset="0.8"/>
   <stop style="stop-color:rgb(95,95,95);stop-opacity:1" offset="0.8"/>
   <stop style="stop-color:rgb(90,90,90);stop-opacity:1" offset="0.8"/>
   <stop style="stop-color:rgb(189,189,189);stop-opacity:1" offset="0.9"/>
   <stop style="stop-color:rgb(228,228,228);stop-opacity:1" offset="1.0"/>
  </linearGradient>
  <linearGradient x1="0" id="_Linear9" x2="1" gradientUnits="userSpaceOnUse" y2="0" y1="0" gradientTransform="matrix(4.69236,0,0,4.69236,138.329,43.6178)">
   <stop style="stop-color:rgb(157,157,157);stop-opacity:1" offset="0.0"/>
   <stop style="stop-color:white;stop-opacity:1" offset="0.5"/>
   <stop style="stop-color:rgb(167,167,167);stop-opacity:1" offset="1.0"/>
  </linearGradient>
  <linearGradient x1="0" id="_Linear10" x2="1" gradientUnits="userSpaceOnUse" y2="0" y1="0" gradientTransform="matrix(4.69236,0,0,4.69236,137.806,44.142)">
   <stop style="stop-color:rgb(157,157,157);stop-opacity:1" offset="0.0"/>
   <stop style="stop-color:white;stop-opacity:1" offset="0.5"/>
   <stop style="stop-color:rgb(167,167,167);stop-opacity:1" offset="1.0"/>
  </linearGradient>
  <linearGradient x1="0" id="_Linear11" x2="1" gradientUnits="userSpaceOnUse" y2="0" y1="0" gradientTransform="matrix(4.69236,1.32924e-15,-1.32924e-15,4.69236,139.52,43.7831)">
   <stop style="stop-color:rgb(157,157,157);stop-opacity:1" offset="0.0"/>
   <stop style="stop-color:white;stop-opacity:1" offset="0.5"/>
   <stop style="stop-color:rgb(167,167,167);stop-opacity:1" offset="1.0"/>
  </linearGradient>
  <linearGradient x1="0" id="_Linear12" x2="1" gradientUnits="userSpaceOnUse" y2="0" y1="0" gradientTransform="matrix(4.69236,1.32924e-15,-1.32924e-15,4.69236,137.991,44.4477)">
   <stop style="stop-color:rgb(157,157,157);stop-opacity:1" offset="0.0"/>
   <stop style="stop-color:white;stop-opacity:1" offset="0.5"/>
   <stop style="stop-color:rgb(167,167,167);stop-opacity:1" offset="1.0"/>
  </linearGradient>
  <linearGradient x1="0" id="_Linear13" x2="1" gradientUnits="userSpaceOnUse" y2="0" y1="0" gradientTransform="matrix(-6.5693,6.5693,-6.5693,-6.5693,142.083,39.917)">
   <stop style="stop-color:rgb(178,178,178);stop-opacity:1" offset="0.0"/>
   <stop style="stop-color:rgb(240,239,239);stop-opacity:1" offset="0.1"/>
   <stop style="stop-color:rgb(212,209,209);stop-opacity:1" offset="0.1"/>
   <stop style="stop-color:rgb(118,107,108);stop-opacity:1" offset="0.2"/>
   <stop style="stop-color:rgb(221,221,221);stop-opacity:1" offset="0.5"/>
   <stop style="stop-color:rgb(210,210,210);stop-opacity:1" offset="0.8"/>
   <stop style="stop-color:rgb(184,184,184);stop-opacity:1" offset="0.9"/>
   <stop style="stop-color:rgb(155,155,155);stop-opacity:1" offset="1.0"/>
  </linearGradient>
  <linearGradient x1="0" id="_Linear15" x2="1" gradientUnits="userSpaceOnUse" y2="0" y1="0" gradientTransform="matrix(3.19488,5.02783,-5.02783,3.19488,138.331,32.5407)">
   <stop style="stop-color:rgb(44,44,44);stop-opacity:1" offset="0.0"/>
   <stop style="stop-color:rgb(44,44,44);stop-opacity:0.803922" offset="0.6"/>
   <stop style="stop-color:rgb(44,44,44);stop-opacity:0.392157" offset="0.8"/>
   <stop style="stop-color:rgb(44,44,44);stop-opacity:0" offset="1.0"/>
  </linearGradient>
  <linearGradient x1="0" id="_Linear16" x2="1" gradientUnits="userSpaceOnUse" y2="0" y1="0" gradientTransform="matrix(-2.81842,2.81842,-2.81842,-2.81842,184.379,100)">
   <stop style="stop-color:black;stop-opacity:1" offset="0.0"/>
   <stop style="stop-color:black;stop-opacity:0.301961" offset="0.6"/>
   <stop style="stop-color:black;stop-opacity:0" offset="1.0"/>
  </linearGradient>
  <linearGradient x1="0" id="_Linear17" x2="1" gradientUnits="userSpaceOnUse" y2="0" y1="0" gradientTransform="matrix(-11.1239,11.1239,-11.1239,-11.1239,152.8,36.9036)">
   <stop style="stop-color:black;stop-opacity:1" offset="0.0"/>
   <stop style="stop-color:rgb(194,194,194);stop-opacity:1" offset="0.3"/>
   <stop style="stop-color:rgb(91,95,93);stop-opacity:1" offset="1.0"/>
  </linearGradient>
 </defs>
</svg>
